X: 707
T: Ey Gâzîler Yol Göründü
C: III. Selim (İlhâmî)
O: Turkey
F: http://compmusic.upf.edu/node/140
N: isfahan--sarki--devrihindi--ey_gaziler--iii_selim
N: makam= isfahan
N: form= sarki
N: usul= devrihindi = 7/4
M: 7/4
L: 1/16
K: C _2/4B   
Q: 1/4=120
%%MIDI tuningsystem comma53
d4 c4 d4 e6f2 e2d2 c4  | B2c2 B4 ^c4 d6f2 e2g2 f4  | z28  | \
w:  ARANAĞME  |   |  | 
z4 e2f2 e4 d4 a2g2 f2e2 d4  | 
w:   | 
c2d2 c4 B4 ABc4BA A4 z4  | d4 c4 d4 e6f2 e2d2 c4  | \
w:   |  ARANAĞME  | 
B2c2 B4 ^c4 d6f2 e2g2 f4  | 
w:   | 
z28  | z4 e2f2 e4 d4 a2g2 f2e2 d4  | \
w:  |   | 
c2d2 c4 B4 ABc4BA A4 z4  | 
w:   | 
z28  | A4 d4 c4 d6e2 d2e2 d2c2  | g2f2 e2d2 c2B2 c6d2 c2d2 c2B2  | 
w:  |  Ey  gâ zî ler   |  yol  *  gö *  rün *  dü   | 
z28  | z4 B2c2 d8 e2f2 e2d2 e3d  | ^c2d2 c2d2 e2c2 d8 z4 a2g2  | 
w:  |  yi ne  ga rip  *  *  *  se  |  *  *  *  *  *  ri me   SAZ  | 
^3/4f3e d2f2 e3d ^2/4c2e2 d6f2 f3e  | \
w:   | 
d2^3/4f2 e3d ^c2e2 d6=f2 d2g2 f4  | 
w:   | 
z28  | e4 f4 e4 f3e f2g2 agfe d4  | d2f2 e2d2 c2B2 c6d2 c2d2 c2B2  | 
w:  |  Dağ lar  taş lar   |  da *  ya *  na *  maz   | 
z28  | z4 B2c2 d8 e2f2 e2d2 e3d  | ^c2d2 c2d2 e2c2 d6f2 e2g2 f4  | 
w:  |  be nim  âh_ ü  *  *  *  zâ  |  *  *  *  *  *  ri me    | 
e4 f4 e4 f3e f2g2 agfe d4  | d2f2 e2d2 c2B2 c6d2 c2d2 c2B2  | 
w:  Dağ lar  taş lar   |  da *  ya *  na *  maz   | 
z4 B2c2 d8 e2f2 e2d2 e3d  | c2d2 c2d2 c2B2 ABc4BA A6z2  | 
w:  be nim  âh_ ü  *  *  *  zâ  |  *  *  *  *  *  ri me    | 
z28  | d4 c4 d4 e6f2 e2d2 c4  | B2c2 B4 ^c4 d6f2 e2g2 f4  | z28  | \
w:  |  ARANAĞME  |   |  | 
z4 e2f2 e4 d4 a2g2 f2e2 d4  | 
w:   | 
c2d2 c4 B4 ABc4BA A4 z4  | d4 c4 d4 e6f2 e2d2 c4  | \
w:   |  ARANAĞME  | 
B2c2 B4 ^c4 d6f2 e2g2 f4  | 
w:   | 
z28  | z4 e2f2 e4 d4 a2g2 f2e2 d4  | \
w:  |   | 
c2d2 c4 B4 ABc4BA A4 z4  | 
w:   | 
z28  | A4 d4 c4 d6e2 d2e2 d2c2  | g2f2 e2d2 c2B2 c6d2 c2d2 c2B2  | 
w:  |  Ey  gâ zî ler   |  yol  *  gö *  rün *  dü   | 
z28  | z4 B2c2 d8 e2f2 e2d2 e3d  | ^c2d2 c2d2 e2c2 d8 z4 a2g2  | 
w:  |  yi ne  ga rip  *  *  *  se  |  *  *  *  *  *  ri me   SAZ  | 
^3/4f3e d2f2 e3d ^2/4c2e2 d6f2 f3e  | \
w:   | 
d2^3/4f2 e3d ^c2e2 d6=f2 d2g2 f4  | 
w:   | 
z28  | e4 f4 e4 f3e f2g2 agfe d4  | d2f2 e2d2 c2B2 c6d2 c2d2 c2B2  | 
w:  |  Dağ lar  taş lar   |  da *  ya *  na *  maz   | 
z28  | z4 B2c2 d8 e2f2 e2d2 e3d  | ^c2d2 c2d2 e2c2 d6f2 e2g2 f4  | 
w:  |  be nim  âh_ ü  *  *  *  zâ  |  *  *  *  *  *  ri me    | 
e4 f4 e4 f3e f2g2 agfe d4  | d2f2 e2d2 c2B2 c6d2 c2d2 c2B2  | 
w:  Dağ lar  taş lar   |  da *  ya *  na *  maz   | 
z4 B2c2 d8 e2f2 e2d2 e3d  | c2d2 c2d2 c2B2 ABc4BA A6z2  | 
w:  be nim  âh_ ü  *  *  *  zâ  |  *  *  *  *  *  ri me    | 
|


